icons/src/scalable/default/devices/audio-headphones-symbolic.svg

<svg xmlns="http://www.w3.org/2000/svg" viewBox="0 0 16 16">
  <defs id="defs3051">
    <style type="text/css" id="current-color-scheme">
      .ColorScheme-Text {
        color:#4d4d4d;
      }
      </style>
  </defs>
 <path 
     style="fill:#bebebe;fill-opacity:1;stroke:none" 
     class="ColorScheme-Text"
     d="M 8 1 C 4.122 1 1 4.122 1 8 L 1 12.666016 C 1 12.666016 1.0006544 15 3.3339844 15 L 5.6660156 15 L 5.6660156 9.1660156 L 3.3339844 9.1660156 L 3.3339844 8 C 3.3339844 5.41466 5.41467 3.3339844 8 3.3339844 C 10.58533 3.3339844 12.666016 5.41466 12.666016 8 L 12.666016 9.1660156 L 10.333984 9.1660156 L 10.333984 15 L 12.666016 15 C 12.666016 15 15 14.999356 15 12.666016 L 15 11.5 L 15 10.916016 L 15 8 C 15 4.122 11.878 1 8 1 z "
     />
</svg>

<svg version="1.1" viewBox="0 0 16 16" xmlns="http://www.w3.org/2000/svg">
 <path d="m8 1c-3.878 0-7 3.122-7 7v4.666s6.544e-4 2.334 2.334 2.334h2.332v-5.834h-2.332v-1.166c0-2.5853 2.0807-4.666 4.666-4.666s4.666 2.0807 4.666 4.666v1.166h-2.332v5.834h2.332s2.334-6.44e-4 2.334-2.334v-1.166-0.58398-2.916c0-3.878-3.122-7-7-7z" fill="#bebebe"/>
</svg>
